X: 1
T: Captain Morgan
R: jig
M: 6/8
L: 1/8
K: Gmaj
|:AAA dAA|cAA BAA|GFG ABc|BAG A3|
AAA dAA|cAA BAA|GFG ABc|B2A G3:|
K: D
|:g3 f3|edc def|g3 f3|edc d2e|
g3 f3|edc def|f2a g2e|edc d3:|

